X:1
T:Here dwells a pretty Maid
T:Here dwells a pretty Maid
T:The Catch Club or Merry Companions (1731-33)
T:anon.
C:anon.
%%score [ 1 2 3 ]
L:1/8
M:2/2
K:F
V:1 treble-8 nm="I"
V:2 treble-8 nm="II"
V:3 treble-8 nm="III"
V:1
|: D2 | E2 E2 D2 C2 | F6 D2 | G6 E2 | A6 FG | A2 G2 A2 A,2 | !fermata!D4 z2 :| %7
w: Here|dwells a pret- ty|Maid whose|name is|Sis, You _|may come in and|Kiss:|
V:2
|: D2 | G4 z2 E2 | A4 z2 F2 | B4 z2 G2 | c3 B A2 A2 | G2 B2 A3 G | !fermata!^F4 z2 :| %7
w: her|hole, her|hole, her|hole, her|whole Es- tate is|sev'n- teen Pence a|Year;|
V:3
|: D2 | z2 EF G4 | z2 FG A4 | z2 GA B4 | z2 AB c2 A2 | A3 d ^c3 e | !fermata!d4 z2 :| %7
w: Yet|you may Kiss,|you may Kiss,|you may Kiss,|you may Kiss her,|if you come but|near.|

